brandFactory_export/1.Light/Pastillas _1Light.svg

<?xml version="1.0" encoding="UTF-8"?>
<svg width="24px" height="24px" viewBox="0 0 24 24" version="1.1" xmlns="http://www.w3.org/2000/svg" xmlns:xlink="http://www.w3.org/1999/xlink">
    <title>1.Light/Pastillas _1Light</title>
    <g id="Symbols" stroke="none" stroke-width="1" fill="none" fill-rule="evenodd">
        <g id="1.Light/Pastillas-_1Light" fill="#5CB615" fill-rule="nonzero">
            <path d="M16.6857143,22.6151261 C13.805042,22.6151261 12.0033613,21.5865546 11.2067227,19.5294118 C11.2,19.4184874 11.1596639,19.3142857 11.0789916,19.2268908 C10.8773109,18.6016807 10.7798319,17.8689076 10.7462185,17.0655462 C10.8201681,17.1058824 10.897479,17.1361345 10.9882353,17.1361345 L22.3831933,17.1361345 C22.4739496,17.1361345 22.5512605,17.1058824 22.6218487,17.0655462 C22.4806723,20.7865546 20.5478992,22.6151261 16.6857143,22.6151261 Z M2.90420168,19.2 C1.64369748,17.9361345 1.01512605,16.6554622 1.03865546,15.394958 C1.05882353,14.1781513 1.68403361,12.9411765 2.89747899,11.7243697 L3.08907563,11.5260504 C3.19327731,11.4151261 3.29747899,11.3042017 3.43865546,11.1831933 L6.99495798,7.61680672 C7.07226891,9.07226891 7.94285714,10.6453782 9.60672269,12.3159664 C9.87226891,12.5781513 10.1277311,12.8168067 10.3865546,13.0386555 C9.9394958,14.0403361 9.7210084,15.2436975 9.7210084,16.6319328 C9.7210084,17.6840336 9.8487395,18.6252101 10.1042017,19.4588235 C7.71764706,21.6840336 5.29747899,21.6 2.90420168,19.2 L2.90420168,19.2 Z M11.2168067,3.38151261 C11.3142857,3.26722689 11.4252101,3.16302521 11.5361345,3.05882353 L11.7310924,2.86722689 C14.2084034,0.386554622 16.7159664,0.386554622 19.189916,2.86722689 C21.5563025,5.24033613 21.6403361,7.64705882 19.4823529,10.0235294 C18.6722689,9.77478992 17.7478992,9.64033613 16.6890756,9.64033613 C13.9092437,9.64033613 12.0033613,10.5243697 10.8941176,12.1411765 C10.702521,11.9697479 10.5142857,11.7983193 10.3159664,11.6033613 C8.41344538,9.6907563 7.67058824,8.00336134 8.11092437,6.57815126 C8.1210084,6.54453782 8.11764706,6.51428571 8.1210084,6.48403361 L11.2168067,3.38151261 Z M22.6252101,16.1983193 C22.5512605,16.1579832 22.4739496,16.1277311 22.3865546,16.1277311 L10.9915966,16.1277311 C10.9008403,16.1277311 10.8235294,16.1579832 10.7495798,16.1983193 C10.8941176,12.4773109 12.8268908,10.6487395 16.6857143,10.6487395 C20.5478992,10.6487395 22.4806723,12.4806723 22.6252101,16.1983193 L22.6252101,16.1983193 Z M20.4907563,10.4168067 C22.7462185,7.72436975 22.5478992,4.81008403 19.8991597,2.15462185 C17.0352941,-0.719327731 13.8823529,-0.715966387 11.0184874,2.15462185 L10.8403361,2.32941176 C10.7058824,2.45714286 10.5747899,2.58487395 10.4773109,2.69579832 L2.75630252,10.4470588 C2.62184874,10.5647059 2.4907563,10.6957983 2.36302521,10.8336134 L2.18823529,11.0117647 C0.786554622,12.4201681 0.0605042017,13.8890756 0.0336134454,15.3747899 C0.00672268908,16.9210084 0.732773109,18.4436975 2.19495798,19.9092437 C3.6302521,21.3512605 5.14285714,22.0705882 6.6487395,22.0705882 C7.95294118,22.0705882 9.25378151,21.5260504 10.5008403,20.4470588 C11.5193277,22.487395 13.5462185,23.6201681 16.6890756,23.6201681 C21.4386555,23.6201681 23.6605042,21.0420168 23.6605042,16.6285714 C23.6571429,13.6302521 22.6319328,11.4890756 20.4907563,10.4168067 L20.4907563,10.4168067 Z" id="Pastillas-_1Light"></path>
        </g>
    </g>
</svg>

<svg width="24" height="24" viewBox="0 0 24 24" xmlns="http://www.w3.org/2000/svg"><path d="M16.686 22.615c-2.881 0-4.683-1.028-5.48-3.086a.48.48 0 00-.127-.302c-.202-.625-.3-1.358-.333-2.161.074.04.151.07.242.07h11.395c.09 0 .168-.03.239-.07-.141 3.72-2.074 5.55-5.936 5.55zM2.904 19.2c-1.26-1.264-1.889-2.545-1.865-3.805.02-1.217.645-2.454 1.858-3.67l.192-.199c.104-.11.208-.222.35-.343l3.556-3.566c.077 1.455.948 3.028 2.612 4.699.265.262.52.5.78.723-.448 1.001-.666 2.205-.666 3.593 0 1.052.128 1.993.383 2.827-2.386 2.225-4.807 2.141-7.2-.259zm8.313-15.818a4.13 4.13 0 01.32-.323l.194-.192c2.477-2.48 4.985-2.48 7.459 0 2.366 2.373 2.45 4.78.292 7.157-.81-.25-1.734-.384-2.793-.384-2.78 0-4.686.884-5.795 2.501-.191-.171-.38-.343-.578-.538-1.903-1.912-2.645-3.6-2.205-5.025.01-.033.007-.064.01-.094l3.096-3.102zm11.408 12.816a.494.494 0 00-.238-.07H10.992c-.091 0-.168.03-.242.07.144-3.72 2.077-5.55 5.936-5.55 3.862 0 5.795 1.833 5.94 5.55zm-2.134-5.781c2.255-2.693 2.057-5.607-.592-8.262-2.864-2.874-6.017-2.871-8.88 0l-.179.174a6.127 6.127 0 00-.363.367l-7.72 7.751a5.31 5.31 0 00-.394.387l-.175.178C.787 12.42.061 13.889.034 15.375c-.027 1.546.699 3.069 2.161 4.534 1.435 1.442 2.948 2.162 4.454 2.162 1.304 0 2.605-.545 3.852-1.624 1.018 2.04 3.045 3.173 6.188 3.173 4.75 0 6.972-2.578 6.972-6.991-.004-2.999-1.03-5.14-3.17-6.212z" fill="#5CB615" fill-rule="nonzero"/></svg>
